X:36
T:Cavan Reel, The 
B:CRE2.168 (RÃÂÃÂÃÂÃÂ­l an ChabhÃÂÃÂÃÂÃÂ¡in)
F:file ID: cre.2/036cavan
L:1/8
M:C
R:reel
Q:180
K:D
D2 (3FED A2FG|ABcA dBcA|D2 (3FED A2AB|cAGE EDD2|
D2FD ADFG|ABcA dBcA|D2 (3FED A2AB|cAGE EDD2:|
f2df fddf|e2cA BGe2|f2de fdd>d|cABG ED/E/ D2|
fdde f2df|e2cA BGe2|Addc defg|a2ge edd2:|

%%%

